offer/images/discount.svg

<svg height="52" viewBox="0 0 51 52" width="51" xmlns="http://www.w3.org/2000/svg"><g fill="none" fill-rule="evenodd"><path d="m37.3420791 43.9126126s4.4473814-5.3891679 6.7254486-7.8334387c1.2163399-1.3051364 1.785-3.0561699.7466561-4.5069486s-3.2818399-2.0435277-4.5069486-.7466561c-2.3343083 2.4709802-7.8106601 9.0489723-7.8106601 9.0489723z" fill="#ffb171"/><path d="m50.3664308 31.2693498c-1.0383438-1.4507787-3.2818399-2.0435277-4.5069486-.7466561-2.3343083 2.4709802-7.8106601 9.0489723-7.8106601 9.0489723l-15.3441462 1.615168v-6.4606719s-3.230336-3.230336-8.8834743-3.230336c-7.65755931 0-12.31468579 3.6004387-13.45422334 4.5941324-.1752747.1526976-.27475494.3744368-.27475494.6068597v7.7203518c0 .445998.36163636.8076343.80763439.8076343h10.49854149l15.0018617 6.3165415c.2172035.091417.4636363.0834546.6744901-.0219723l15.8195751-7.9097371s4.4473814-5.389168 6.7254486-7.8334388c1.2164407-1.3050355 1.7851008-3.0560691.7466561-4.5068478z" fill="#fc9"/><path d="m49.6197747 32.6204466c-2.2779664 2.4442708-8.3406166 9.3740218-8.3406166 9.3740218l-14.5366126 6.5351561-15.3441463-6.4606719h-11.30627667v2.3482174c0 .445998.36163636.8076343.80763439.8076343h10.49864228l15.0018617 6.3165415c.2172035.091417.4636363.0834546.6744901-.0219723l15.8195751-7.9097371s4.4473814-5.389168 6.7254486-7.8334388c1.1723953-1.2578656 1.7423656-2.930081.8522846-4.3484051-.2183123.4219091-.5095968.8250711-.8522846 1.1926541z" fill="#ffb171"/><path d="m32.8903636 37.2948083s-13.4160237-5.7988814-19.069162-5.7988814c-7.65755931 0-12.31468579 3.6004387-13.45422334 4.5941324-.1752747.1526976-.27475494.3744367-.27475494.6068597v4.4900158h22.61245258l8.2610929 2.275245c1.7030573.5314684 3.5145652-.4182806 4.0460336-2.1214387.5314684-1.7030573-.4183815-3.5144644-2.1214388-4.0459328z" fill="#fc9"/><path d="m30.9657688 41.0394783-5.7989822-1.5971265c-1.3803261-.3801818-2.8169941.38633-3.2697451 1.7446838l9.0687273 2.275245c1.7030573.5314684 3.5145652-.4183814 4.0460336-2.1214387.2318182-.7427253.1817253-1.5059111-.089502-2.1747569-.6228854 1.5453201-2.3382391 2.3783537-3.9565316 1.8733933z" fill="#ffb171"/><path d="m43.651666 15.871583c-.1172194-.3169862-.4193893-.5274368-.7574407-.5274368h-6.4606719v-14.53651181c0-.44599803-.3616364-.80763439-.8076344-.80763439h-19.3820158c-.4459981 0-.8076344.36163636-.8076344.80763439v14.53661261h-6.46067196c-.32383992 0-.62389328.2009763-.7469585.5005257-.13092688.3188004-.040417.6959585.22123518.9202174l16.95941498 14.5365119c.1511858.1296166.3384546.1944249.5256226.1944249s.3743359-.0648083.5255217-.1944249l16.9593142-14.5366127c.2567135-.2198241.3492392-.5764209.231919-.8933063z" fill="#00c8c8" transform="matrix(1 0 0 -1 0 31.495926)"/><path d="m17.8590711 20.1896502-.0012094-19.38201581c0-.44599803.3616363-.80763439.8076343-.80763439h-2.4215928c-.4459981 0-.8076344.36163636-.8076344.80763439v14.53661261h-6.46067196c-.32383992 0-.62389328.2009763-.7469585.5005257-.13092688.3188004-.040417.6959585.22123518.9202174l16.95941498 14.5365119c.1511858.1296166.3384546.1944249.5256226.1944249s.3743359-.0648083.5255217-.1944249l2.0637866-1.7688735z" fill="#00a1b2" transform="matrix(1 0 0 -1 0 31.495926)"/><g fill="#fff"><g transform="translate(25 22)"><path d="m1.40251578 6.60474308c-.35465358 0-.53673212-.44233563-.28677911-.69205341l5.1917763-5.18918627c.15848177-.15834709.41523843-.15834709.5736662 0s.15842777.41502696 0 .57332008l-5.19183029 5.18918627c-.07921389.07917355-.1829965.11873333-.2868331.11873333z"/><g fill-rule="nonzero"><path d="m6 6.60474308c-.55138718 0-1-.44861282-1-1 0-.55138717.44861282-1 1-1s1 .44861283 1 1c0 .55142967-.44861282 1-1 1zm0-1.36168585c-.19943068 0-.36168586.16225517-.36168586.36168585 0 .19943069.16225518.36168586.36168586.36168586s.36168586-.16225517.36168586-.36168586c0-.19943068-.16225518-.36168585-.36168586-.36168585z"/><path d="m1 2.60474308c-.55138718 0-1-.44861282-1-1 0-.55138717.44861282-1 1-1s1 .44861283 1 1c0 .55138718-.44861282 1-1 1zm0-1.36168585c-.19943068 0-.36168586.16225517-.36168586.36168585 0 .19943069.16225518.36168586.36168586.36168586s.36168586-.16225517.36168586-.36168586c0-.19943068-.16225518-.36168585-.36168586-.36168585z"/></g></g><path d="m27 18.6047431h-5.8305745v-1.2073171l2.751704-3.0609756c.3778013-.4308965.6572532-.806909.8383642-1.1280488.1811109-.3211398.271665-.6260148.271665-.9146341 0-.3943109-.0954226-.7042672-.2862707-.9298781s-.4634841-.3384146-.8179162-.3384146c-.3816962 0-.6825695.1371937-.9026291.4115854-.2200595.2743916-.3300876.6351603-.3300876 1.082317h-1.6942551c0-.5406531.1236599-1.0345506.3709834-1.4817073.2473236-.4471567.5968819-.7977629 1.0486855-1.05182926.4518037-.25406631.9639699-.38109756 1.5365142-.38109756.8763432 0 1.5569596.21951 2.0418695.65853662.4849099.4390266.7273612 1.0589391.7273612 1.8597561 0 .4390266-.1090544.8861766-.3271665 1.3414634s-.5920129.9857693-1.1217137 1.5914634l-1.9337877 2.1280488h3.6572541zm5 0h-1.8233438v-6.8765432l-2.1766562.6604938v-1.4506173l3.8044164-1.33333332h.1955836z"/></g></g></svg>

<?xml version="1.0" encoding="UTF-8"?>
<svg width="51px" height="52px" viewBox="0 0 51 52" version="1.1" xmlns="http://www.w3.org/2000/svg" xmlns:xlink="http://www.w3.org/1999/xlink">
    <!-- Generator: Sketch 52.2 (67145) - http://www.bohemiancoding.com/sketch -->
    <title>discount</title>
    <desc>Created with Sketch.</desc>
    <g id="Page-1" stroke="none" stroke-width="1" fill="none" fill-rule="evenodd">
        <g id="offer" transform="translate(-150.000000, -7832.000000)">
            <g id="discount" transform="translate(150.000000, 7832.000000)">
                <path d="M37.3420791,43.9126126 C37.3420791,43.9126126 41.7894605,38.5234447 44.0675277,36.0791739 C45.2838676,34.7740375 45.8525277,33.023004 44.8141838,31.5722253 C43.7758399,30.1214466 41.5323439,29.5286976 40.3072352,30.8255692 C37.9729269,33.2965494 32.4965751,39.8745415 32.4965751,39.8745415 L37.3420791,43.9126126 Z" id="Path" fill="#FFB171"></path>
                <path d="M50.3664308,31.2693498 C49.328087,29.8185711 47.0845909,29.2258221 45.8594822,30.5226937 C43.5251739,32.9936739 38.0488221,39.571666 38.0488221,39.571666 L22.7046759,41.186834 L22.7046759,34.7261621 C22.7046759,34.7261621 19.4743399,31.4958261 13.8212016,31.4958261 C6.16364229,31.4958261 1.50651581,35.0962648 0.366978261,36.0899585 C0.191703557,36.2426561 0.0922233202,36.4643953 0.0922233202,36.6968182 L0.0922233202,44.41717 C0.0922233202,44.863168 0.453859684,45.2248043 0.899857708,45.2248043 L11.3983992,45.2248043 L26.4002609,51.5413458 C26.6174644,51.6327628 26.8638972,51.6248004 27.074751,51.5193735 L42.8943261,43.6096364 C42.8943261,43.6096364 47.3417075,38.2204684 49.6197747,35.7761976 C50.8362154,34.4711621 51.4048755,32.7201285 50.3664308,31.2693498 Z" id="Path" fill="#FFCC99"></path>
                <path d="M49.6197747,32.6204466 C47.3418083,35.0647174 41.2791581,41.9944684 41.2791581,41.9944684 L26.7425455,48.5296245 L11.3983992,42.0689526 L0.0921225296,42.0689526 L0.0921225296,44.41717 C0.0921225296,44.863168 0.453758893,45.2248043 0.899756917,45.2248043 L11.3983992,45.2248043 L26.4002609,51.5413458 C26.6174644,51.6327628 26.8638972,51.6248004 27.074751,51.5193735 L42.8943261,43.6096364 C42.8943261,43.6096364 47.3417075,38.2204684 49.6197747,35.7761976 C50.79217,34.518332 51.3621403,32.8461166 50.4720593,31.4277925 C50.253747,31.8497016 49.9624625,32.2528636 49.6197747,32.6204466 Z" id="Path" fill="#FFB171"></path>
                <path d="M32.8903636,37.2948083 C32.8903636,37.2948083 19.4743399,31.4959269 13.8212016,31.4959269 C6.16364229,31.4959269 1.50651581,35.0963656 0.366978261,36.0900593 C0.191703557,36.2427569 0.0922233202,36.464496 0.0922233202,36.696919 L0.0922233202,41.1869348 L22.7046759,41.1869348 L30.9657688,43.4621798 C32.6688261,43.9936482 34.480334,43.0438992 35.0118024,41.3407411 C35.5432708,39.6376838 34.5934209,37.8262767 32.8903636,37.2948083 Z" id="Path" fill="#FFCC99"></path>
                <path d="M30.9657688,41.0394783 L25.1667866,39.4423518 C23.7864605,39.06217 22.3497925,39.8286818 21.8970415,41.1870356 L30.9657688,43.4622806 C32.6688261,43.993749 34.480334,43.0438992 35.0118024,41.3408419 C35.2436206,40.5981166 35.1935277,39.8349308 34.9223004,39.166085 C34.299415,40.7114051 32.5840613,41.5444387 30.9657688,41.0394783 Z" id="Path" fill="#FFB171"></path>
                <path d="M43.651666,15.871583 C43.5344466,15.5545968 43.2322767,15.3441462 42.8942253,15.3441462 L36.4335534,15.3441462 L36.4335534,0.807634387 C36.4335534,0.361636364 36.071917,0 35.625919,0 L16.2439032,0 C15.7979051,0 15.4362688,0.361636364 15.4362688,0.807634387 L15.4362688,15.344247 L8.97559684,15.344247 C8.65175692,15.344247 8.35170356,15.5452233 8.22863834,15.8447727 C8.09771146,16.1635731 8.18822134,16.5407312 8.44987352,16.7649901 L25.4092885,31.301502 C25.5604743,31.4311186 25.7477431,31.4959269 25.9349111,31.4959269 C26.1220791,31.4959269 26.309247,31.4311186 26.4604328,31.301502 L43.419747,16.7648893 C43.6764605,16.5450652 43.7689862,16.1884684 43.651666,15.871583 Z" id="Path" fill="#00C8C8" transform="translate(25.935557, 15.747963) scale(1, -1) translate(-25.935557, -15.747963) "></path>
                <path d="M17.8590711,20.1896502 L17.8578617,0.807634387 C17.8578617,0.361636364 18.219498,0 18.665496,0 L16.2439032,0 C15.7979051,0 15.4362688,0.361636364 15.4362688,0.807634387 L15.4362688,15.344247 L8.97559684,15.344247 C8.65175692,15.344247 8.35170356,15.5452233 8.22863834,15.8447727 C8.09771146,16.1635731 8.18822134,16.5407312 8.44987352,16.7649901 L25.4092885,31.301502 C25.5604743,31.4311186 25.7477431,31.4959269 25.9349111,31.4959269 C26.1220791,31.4959269 26.309247,31.4311186 26.4604328,31.301502 L28.5242194,29.5326285 L17.8590711,20.1896502 Z" id="Path" fill="#00A1B2" transform="translate(18.346715, 15.747963) scale(1, -1) translate(-18.346715, -15.747963) "></path>
                <g id="Group" transform="translate(25.000000, 22.000000)" fill="#FFFFFF">
                    <path d="M1.40251578,6.60474308 C1.0478622,6.60474308 0.865783657,6.16240745 1.11573667,5.91268967 L6.30751297,0.723503399 C6.46599474,0.565156311 6.7227514,0.565156311 6.88117917,0.723503399 C7.03960694,0.881850487 7.03960694,1.13853036 6.88117917,1.29682348 L1.68934888,6.48600975 C1.61013499,6.5651833 1.50635238,6.60474308 1.40251578,6.60474308 Z" id="Path"></path>
                    <path d="M6,6.60474308 C5.44861282,6.60474308 5,6.15613026 5,5.60474308 C5,5.05335591 5.44861282,4.60474308 6,4.60474308 C6.55138718,4.60474308 7,5.05335591 7,5.60474308 C7,6.15617275 6.55138718,6.60474308 6,6.60474308 Z M6,5.24305723 C5.80056932,5.24305723 5.63831414,5.4053124 5.63831414,5.60474308 C5.63831414,5.80417377 5.80056932,5.96642894 6,5.96642894 C6.19943068,5.96642894 6.36168586,5.80417377 6.36168586,5.60474308 C6.36168586,5.4053124 6.19943068,5.24305723 6,5.24305723 Z" id="Shape" fill-rule="nonzero"></path>
                    <path d="M1,2.60474308 C0.448612822,2.60474308 0,2.15613026 0,1.60474308 C0,1.05335591 0.448612822,0.604743083 1,0.604743083 C1.55138718,0.604743083 2,1.05335591 2,1.60474308 C2,2.15613026 1.55138718,2.60474308 1,2.60474308 Z M1,1.24305723 C0.800569316,1.24305723 0.638314144,1.4053124 0.638314144,1.60474308 C0.638314144,1.80417377 0.800569316,1.96642894 1,1.96642894 C1.19943068,1.96642894 1.36168586,1.80417377 1.36168586,1.60474308 C1.36168586,1.4053124 1.19943068,1.24305723 1,1.24305723 Z" id="Shape" fill-rule="nonzero"></path>
                </g>
                <path d="M27,18.6047431 L21.1694255,18.6047431 L21.1694255,17.397426 L23.9211295,14.3364504 C24.2989308,13.9055539 24.5783827,13.5295414 24.7594937,13.2084016 C24.9406046,12.8872618 25.0311587,12.5823868 25.0311587,12.2937675 C25.0311587,11.8994566 24.9357361,11.5895003 24.744888,11.3638894 C24.5540399,11.1382785 24.2814039,11.0254748 23.9269718,11.0254748 C23.5452756,11.0254748 23.2444023,11.1626685 23.0243427,11.4370602 C22.8042832,11.7114518 22.6942551,12.0722205 22.6942551,12.5193772 L21,12.5193772 C21,11.9787241 21.1236599,11.4848266 21.3709834,11.0376699 C21.618307,10.5905132 21.9678653,10.239907 22.4196689,9.98584064 C22.8714726,9.73177433 23.3836388,9.60474308 23.9561831,9.60474308 C24.8325263,9.60474308 25.5131427,9.82425308 25.9980526,10.2632797 C26.4829625,10.7023063 26.7254138,11.3222188 26.7254138,12.1230358 C26.7254138,12.5620624 26.6163594,13.0092124 26.3982473,13.4644992 C26.1801352,13.919786 25.8062344,14.4502685 25.2765336,15.0559626 L23.3427459,17.1840114 L27,17.1840114 L27,18.6047431 Z M32,18.6047431 L30.1766562,18.6047431 L30.1766562,11.7281999 L28,12.3886937 L28,10.9380764 L31.8044164,9.60474308 L32,9.60474308 L32,18.6047431 Z" id="21" fill="#FFFFFF"></path>
            </g>
        </g>
    </g>
</svg>
